X:1
T:Suite No. 5 for Solo Violin
T:Suite No. 5 for Solo Violin
T:in D Minor
T:Johann Paul von Westhoff
C:J. P. von Westhoff
%%score ( 1 2 3 4 )
L:1/8
Q:1/4=80
M:4/4
K:C
V:1 treble nm="Violin" snm="Vln."
V:2 treble 
V:3 treble 
V:4 treble 
V:1
"^Allemande" A2 | A2- A/A/B/^c/ defg | a2 a2 g2 g2 | f2 f2 e2 e2 | d2 d2 de/d/ ^cB/c/ | %5
 d/e/f/g/ a/a/b/^c'/ d'2 d'2 | c'2 c'2 _b2 b2 | a2 a2 ab/a/ ^g^f/g/ | a2 a2 ab/a/ ^g^f/g/ | a6 :: %10
 f2 | f2 x2 e(e/4f/4g/) Tf>e | f2- f/d'/c'/_b/ a(a/4b/4c'/) Tb>a | _b2 x2 g(g/4a/4b/) Ta>g | %14
 a2 x2 e(e/4f/4g/) Tf>e | f(f/4g/4a/) Tg>f g(g/4a/4_b/) Ta>g | a(a/4_b/4c'/) Tb>a b2- |S b/a/g/f/ | %18
 e2- e/f/e/d/ ed d>^c | d6!D.S.! :|[K:C][M:3/2][Q:1/4=260]"^Courante" A4 | A4 D2 d2 ^c2 B2 | %22
 e4 a2 e2 f2 g2 | f4 d'2 a2 _b2 c'2 | _b6 a2 g2 a2 | f4 Te8 | d4 x2 a2 b2 ^c'2 | d'4 =c'6 d'2 | %28
 _b4 b6 c'2 | a4 e6 g2 | f4 e6 d2 | d2 ^c2 c4 :: e4 | [A,E^ce]12 | =c4 d4 e4 | [Fcf]12 | g4 a4 b4 | %37
 [CGec']12 | c'4 b6 a2 | ^g6 g2 g4 | a4 a6 ^g2 | a4 =g4 g4 | f4 [Ee]8 | [Dd]8 :| %44
[K:C][M:3/2][Q:1/4=80]"^Sarabande" D6 E2 F2 G2 | A6 A2 B2 ^c2 | d6 e2 f2 g2 | a6 ^c2 d2 e2 | %48
 f6 g2 a2 b2 | c'6 f2 g2 a2 | _b6 d2 e2 f2 | [A,E^ce]12 :: f4 x2 A2 G2 F2 | e6 g2 f2 e2 | %54
 d'6 x2 x4 | e6 x2 x4 | a6 c'2 _b2 a2 | _b6 f2 e2 d2 | a6 g2 f2 e2 | [Ddf]12 :| %60
[K:C][M:6/4][Q:1/4=280]"^Gigue" d3 e f2 e3 f d2 | a6 a6 | f3 g a2 g3 a f2 | e3 f g2 f3 g e2 | %64
 [Bd]6 B6 | c4 B2 A4 c2 | _B3 c A2 G3 A F2 | _B3 c A2 D3 A ^G2 | A3 B c2 B3 c A2 | e6 e6 | %70
 c3 d e2 d3 e c2 | B3 c d2 c3 d B2 | c6 A6 | F3 G A2 G3 A F2 | E3 F G2 F3 G E2 | F3 G A2 A3 B ^G2 | %76
 A3 B c2 B3 c ^G2 | A6 !fermata!A6 :: a3 b a2 g3 f e2 | f6 f6 | g3 a g2 f3 e d2 | e6 e6 | %82
 f3 g f2 f6 | f3 g f2 f3 g f2 | f6 x3 x x2 | f6 x6 | g3 a g2 f3 e d2 | e6 x6 | a3 b a2 g3 f e2 | %89
 d'3 e' d'2 c'3 _b a2 | _b3 c' b2 a3 g ^f2 | g3 a g2 =f3 e d2 | a3 b a2 g3 f e2 | f6 x6 | %94
 f3 g f2 e3 d ^c2 | d4 ^c2 d6 :| %96
V:2
 x2 | F4 FE D2 | cA/_B/ cB/A/ BG/A/ BA/G/ | AF/G/ AG/F/ GE/F/ GF/E/ | FD/E/ FE/D/ E2 E2 | %5
 D4 fd/e/ fe/d/ | ec/d/ ed/c/ d_B/c/ dc/B/ | cA/=B/ cB/A/ B2 B2 | cA/B/ cB/A/ B2 B2 | E6 :: x2 | %11
 F2- F/F/E/D/ E2 x2 | d2 x2 ^f2 x2 | G2- G/F/E/D/ G2 x2 | F2- F/D/^C/B,/ E2 x2 | d2 x2 e2 x2 | %16
 f2 x2 d2- | d/c/_B/A/ | G2- G/A/G/F/ ^cd E2 | D6 :|[K:C][M:3/2] x4 | F4 x4 x4 | ^c4 x2 c2 d2 e2 | %23
 d4 x2 ^f2 g4 | d6 c2 _B4 | A4 A6 G2 | F2 E2 D2 x2 x4 | ^f4 [A=f]8 | d4 [CGe]8 | f4 [^CEA]8 | %30
 d4 [^G,EB]8 | E4 E4 :: x4 | x12 | F4 F4 _B4 | x12 | c4 [Dd]8 | x12 | e4 [Dd]8 | [Ee]8 d4 | %40
 F2 D2 E8 | ^c4 B4 c4 | d8 ^c4 | x8 :|[K:C][M:3/2] D6 x2 x4 | ^C4 x8 | G4 x8 | ^c6 x6 | d4 x8 | %49
 e4 x8 | G4 x8 | x12 :: A6 x6 | c4 x8 | D6 D2 ^C2 B,2 | A,6 _B,2 A,2 G,2 | f4 x8 | d4 x8 | %58
 ^c6 e2 d2 c2 | x12 :|[K:C][M:6/4] x12 | A3 B c2 B3 c A2 | d6 B6 | ^c3 d e2 d3 e c2 | %64
 D3 E F2 E3 F D2 | E3 F G2 F3 G E2 | D4 C2 _B,4 A,2 | D4 C2 =B,6 | E6 x3 x x2 | E3 ^F G2 F3 G E2 | %70
 A6 ^F6 | ^G6 A4 G2 | A,3 B, C2 B,3 C A,2 | D6 B,6 | ^C6 D4 C2 | D4 E2 D6 | E6 x6 | A6 A6 :: x12 | %79
 d3 e d2 c3 _B A2 | =B6 B6 | c3 d c2 _B3 A G2 | A6 c3 d c2 | d3 e d2 _B6 | F3 G F2 E3 D ^C2 | %85
 D3 E D2 =C3 B, A,2 | B4 x8 | C3 D C2 _B,3 A, G,2 | ^c6 x6 | d6 x6 | d6 x6 | =B6 x6 | ^c6 x6 | %93
 D3 E D2 ^C3 B, A,2 | d3 e d2 d4 ^c2 | ^F4 E2 F6 :| %96
V:3
 x2 | D4 x4 | x8 | x8 | x4 A,2 A,2 | D4 x4 | x8 | x4 E2 E2 | x4 E2 E2 | ^c6 :: x2 | c2 x2 A2 x2 | %12
 A2 x2 A2 x2 | d2 x2 e2 x2 | c2 z2 ^c2 x2 | A2 x2 G2 x2 | c2 x2 G2 | x2 | G,2 x2 G,A, A,2 | x6 :| %20
[K:C][M:3/2] x4 | D4 x8 | E4 x8 | A4 x8 | G6 x2 x4 | x12 | x12 | A4 x8 | G4 x8 | A4 x8 | F4 x8 | %31
 A,4 A,4 :: x4 | x12 | A,4 _B,4 G,4 | x12 | E4 x8 | x12 | G4 x8 | x8 E4 | c4 B6 d2 | E4 E4 E4 | %42
 G4 x8 | x8 :|[K:C][M:3/2] x12 | x12 | D4 x8 | E6 x6 | A4 x8 | G4 x8 | d6 x2 x4 | x12 :: F6 x2 x4 | %53
 E4 x8 | f6 x2 x4 | ^c6 x2 x4 | A4 x8 | G4 x8 | E4 x8 | x12 :|[K:C][M:6/4] x12 | x12 | x12 | x12 | %64
 x12 | x12 | x12 | x12 | A,6 x3 x x2 | x12 | x12 | x12 | A6 x3 x x2 | x12 | x12 | x4 =C2 B,6 | %76
 A,6 x3 x x2 | x12 :: x12 | x12 | x12 | x12 | x12 | x6 G6 | c6 x3 x x2 | c6 x6 | D4 x8 | c6 x6 | %88
 E6 x6 | A6 x6 | G6 x6 | D6 x6 | E6 x6 | c6 x6 | D6 E4 E2 | x12 :| %96
V:4
 x2 | x8 | x8 | x8 | x8 | x8 | x8 | x8 | x8 | A,6 :: x2 | x4 ^C2 x2 | D2 x2 D2 x2 | G,2 x2 A,2 x2 | %14
 x4 A,2 x2 | D2 x2 C2 x2 | F2 x2 G,2 | x2 | x4 EF x2 | x6 :|[K:C][M:3/2] x4 | x12 | A,4 x8 | %23
 D4 x8 | G,6 x2 x4 | x12 | x12 | D4 x8 | G,4 x8 | F4 x8 | D4 x8 | x8 :: x4 | x12 | x8 E4 | x12 | %36
 x12 | x12 | C4 x8 | x12 | x12 | A,4 x8 | G,4 x8 | x8 :|[K:C][M:3/2] x12 | x12 | x12 | A,6 x6 | %48
 D4 x8 | C4 x8 | D4 x8 | x12 :: x12 | C4 x8 | A6 x2 x4 | E6 x2 x4 | D4 x8 | G,4 x8 | A,4 x8 | %59
 x12 :|[K:C][M:6/4] x12 | x12 | x12 | x12 | x12 | x12 | x12 | x12 | x12 | x12 | x12 | x12 | x12 | %73
 x12 | x12 | x12 | x12 | x12 :: x12 | x12 | x12 | x12 | x12 | x12 | x12 | x12 | G,4 x8 | E6 x6 | %88
 A,6 x6 | D6 x6 | G,6 x6 | G,6 x6 | A,6 x6 | x12 | x6 A,4 x2 | x12 :| %96

